!!!SOCIAL_FUNCTION:	songs of war
!!!PDT:	1918

Specific Region: Dakotas, Minnesota, Montana, Nebraska
!!!REG: Dakotas and Montana
!!!LING_GROUP: Siouan
!!!LANG: Tone
!!!OTL@ENG: Song Concerning War Paint
!!!ONM: No. 138
**kern
*Imale
*clefF4
*k[b-]
*M2/4
*>[A,B,B]
*>norep[A,B]
*>A
*MM69
16e
16e
=1
4e
4e
=2
8.d
16c
8A
16A
16A
=3
8.d
16d
8A
16B-
16A
=4||
*M3/4
8.A
16A
2A
=5||
*M2/4
4.A
*>B
=!|:
16B-
16B-
=6
4B-
4B-
=7
8.A
16G
8E
16F
16F
=8
8.F
16F
8E
16E
16E
=9
4D
8AA
16E
16E
=10
4E
4E
=11
8.D
16D
8AA
16C
16C
=12
8.D
16D
8AA
16BB-
16AA
=13
8.AA
16AA
4AA
=14
2AA
=15
4.AA
==:|!
*-
!!!CNT: Native American -- Sioux
!!!MRD: 1911/07//-1914///
!!!OCL: Frances Densmore
!!!YOR1: Teton Sioux Music, Bulletin 61,
!!!YOR2: Bureau of American Ethnology, Smithsonian Institution
!!!PPR: Government Printing Office
!!!PPP: Washington, D.C.
!!!PDT: 1918///
!!!ENC: Craig Stuart Sapp
!!!END: 2002/03/25/
!!!EEV: 2002/03/31/
!!!AGN: War Song/Song of a Typical War Expedition
!!!MPN@@SIO: Shiya'ka
!!!MPN@ENG: Teal Duck
!!!TXO: Teton Sioux
!!!MLC: Standing Rock Reservation, South Dakota, United States of America
!!!ARL: 45.9/-100.7#
!!!catalog: Catalogue No. 465
!!!PPG: 353
!!!EFL: 142/245
!!!VTS: 3103789002
